X:1
T:Ach wie empfindt mein Hertze
T:Giovanni Giacomo Gastoldi
T:Source : Tricinia---Johann-Jacob Gastoldi und anderer Autorn---Nürnberg---P.Kauffmann---1607. Editor : André Vierendeels (14/03/17). 
T:Notes : Original clefs : G2, C1, F3 Text Middle German by Valentin Hauszmann
T:Ach wie empfindt mein Hertze
T:©
T:©
C:Giovanni Giacomo Gastoldi
Z:©
%%score [ 1 2 3 ]
L:1/8
Q:1/4=100
M:4/4
K:F
V:1 treble nm="Soprano 1" snm="S 1"
V:2 treble nm="Soprano 2" snm="S 2"
V:3 treble-8 nm="Tenor" snm="T"
V:1
 f6 ed | e6 ^c2 | d8 | ^c4 d4 | e4 f4- | f2 f2 e4 | d4 e4- | e2 e2 d4 | ^c4 d4- | d4 ^c4 | %10
w: Ach, wie emp-|findt mein|Hert-|ze, durch|die brin-|* nen- de|Lieb so|_ grau- sam|schmer- *||
w: Auff dei- ne|hülff al-|lei-|ne, hab|ich hoff|_ nung ge-|setzt, und|_ sonst auff|kei- *||
[M:2/4] d4 :| a4- |:[M:4/4] a2 a2 a4 | f2 f2 g4- | g2 f2 f4- | f4 e4 | f4 z2 f2 | e3 d e2 d2 | %18
w: ze,|wel-|* ches ich|jetzt thu kla-|||gen, mein|Schatz, dein trost mir|
w: ne,|kan|_ ich nicht|huld er- wer-|||ben, da-|durch ich werd er-|
 ^c4 d4- | d4 e4 | ^c4 d4- | d4 ^c4 | d8 :| %23
w: gib, musz|_ sonst|ver- sa-||gen.|
w: getzt, so|_ musz|ich ster-||ben.|
V:2
 z4 A4- | A2 GF G2 A2 | BA A3 G G2 | A8 | z4 A4 | G4 A4- | A2 A2 G4 | ^F4 G4- | G2 G2 F4 | E8 | %10
w: Ach,|_ wie emp- findt mein|Hert- * * * *|ze,|durch|dir brin-|* nen- de|Lieb so|_ grau- sam|schmer-|
w: Im|_ Kreisz der gan- tzen|Er- * * * *|den,|mag|die Lie-|* be mir|nicht zu|_ wil- len|wer-|
[M:2/4] D4- :| D4 |:[M:4/4] z4 A4- | A2 A2 B4- | B2 B2 A4 | G8 | F4 z2 A2 | G3 F G2 G2 | A8 | %19
w: ze,||wel-|* ches ich|_ jetzt thu|kla-|gen, mein|Schatz, dein trost mir|gib,|
w: den,||solt|_ es von|_ dir nicht|g'sche-|hen, da-|hin ichs hab ge-|richt,|
 A4 G4- | G4 F4 | E8 | D8 :| %23
w: musz sonst|_ ver-|sa-|gen.|
w: würd ich|_ saur|se-|hen.|
V:3
 d6 cB | c6 A2 | d3 c B4 | A4 d4 | ^c4 d4- | d2 d2 c4 | =B4 c4- | c2 c2 B4 | A8- | A8 | %10
w: Ach, wie emp-|findt mein|Her- * *|ze, durch|die brin-|* nen- de|Lieb so|_ grau- sam|schmer-||
[M:2/4] D4- :| D4 |:[M:4/4] d6 d2 | d4 B2 B2 | c8- | c8 | F4 z2 F2 | c3 d c2 B2 | A4 d4 | ^F4 G4 | %20
w: ze,||wel- ches|ich jetzt thu|kla-||gen, mein|Schatz, dein trost mir|gib, musz|sonst ver-|
 A8- | A8 | D8 :| %23
w: sa-||gen.|

